X: 24084
T: Long Journey Home, The
R: jig
M: 6/8
K: Ddorian
|:DDD ADB|DDD AGC|DDD ADB|cCc BAG|
DDD ADB|DDD AGC|cdc BcB|CcC BCA:|
|:Ddd Dee|Ddd cBA|Ddd Dee|c2c BAG|
Ddd Dee|Ddd cBA|cdc BcB|CcC BCA:|

